X:2869
T:Polska
T:ur Kumlins notsamling (nr 138)
B:Kumlins notsamling, nr 138
B:http://www.smus.se/earkiv/fmk/browselarge.php?lang=sw&katalogid=Ma+4&bildnr=00040
O:Närke
R:Polska
Z:Nils Liberg
M:3/4
L:1/16
K:D
D2FD A4 E2FG | F2DF A2FA d4 | A4 g4 f4 | efed cdcB A4 |
D2FD A4 E2FG | F2DF A2FA d4 | A4 g4 f4 | e2dc d2AF D4 ::
d2ef A2A2 A2A2 | c2de G2G2 G2G2 | B2cd D2DE F2FG | A2EC A,8 |
d2ef A2A2 A2A2 | c2de G2G2 G2G2 | F2EF G2F2 E2D2 | A2Bc d4 D4 :|
(:musicend:)
(:music:)
